X: 1
T: Brown Ale
M: 6/8
L: 1/8
R: jig
K: Gmaj
F|: GDE GAB | deg edB | AEA ~c3 | eag fed | ~B3 dBd | ~g3 bgd | eab age | dBA G2F :|2 dBA G2f ||
|: gBc def | gdg bgd | e2e efg | ~f3 fga | gBc def | gdg bgd | eab age | dBA G2f :|2 dBA 2G ||
